;FLAVOR:Marlin
;TIME:5800
;Filament used: 6.17654m
;Layer height: 0.2
;MINX:96.8
;MINY:111.8
;MINZ:0.2
;MAXX:203.2
;MAXY:188.2
;MAXZ:4
;Generated with Cura_SteamEngine 4.13.1
M104 S205
M105
M109 S205
M82 ;absolute extrusion mode
G28 ;Home
G1 Z15.0 F6000 ;Move the platform down 15mm
;Prime the extruder
G92 E0
G1 F200 E3
G92 E0
G92 E0
G92 E0
G1 F1500 E-6.5
;LAYER_COUNT:20
;LAYER:0
M107
G0 F3600 X97.789 Y112.704 Z0.2
;TYPE:SKIRT
G1 F1500 E0
G1 F1800 X98.18 Y112.383 E0.01683
G1 X98.617 Y112.128 E0.03365
G1 X99.088 Y111.944 E0.05047
G1 X99.582 Y111.838 E0.06728
G1 X100.24 Y111.801 E0.0892
G1 X199.339 Y111.8 E3.38524
G1 X200.037 Y111.81 E3.40846
G1 X200.54 Y111.857 E3.42526
G1 X201.03 Y111.983 E3.44209
G1 X201.494 Y112.185 E3.45892
G1 X201.92 Y112.457 E3.47573
G1 X202.298 Y112.792 E3.49253
G1 X202.618 Y113.183 E3.50934
G1 X202.873 Y113.62 E3.52617
G1 X203.056 Y114.091 E3.54297
G1 X203.163 Y114.585 E3.55978
G1 X203.199 Y115.24 E3.5816
G1 X203.2 Y184.304 E5.87868
G1 X203.191 Y185.031 E5.90286
G1 X203.145 Y185.534 E5.91966
G1 X203.02 Y186.024 E5.93648
G1 X202.819 Y186.488 E5.9533
G1 X202.548 Y186.915 E5.97012
G1 X202.213 Y187.294 E5.98694
G1 X201.823 Y187.615 E6.00374
G1 X201.387 Y187.871 E6.02056
G1 X200.916 Y188.054 E6.03737
G1 X200.422 Y188.162 E6.05419
G1 X199.76 Y188.199 E6.07624
G1 X100.666 Y188.2 E9.37212
G1 X99.968 Y188.191 E9.39534
G1 X99.464 Y188.144 E9.41217
G1 X98.974 Y188.019 E9.42899
G1 X98.51 Y187.818 E9.44581
G1 X98.084 Y187.547 E9.4626
G1 X97.705 Y187.212 E9.47943
G1 X97.384 Y186.821 E9.49625
G1 X97.129 Y186.385 E9.51305
G1 X96.945 Y185.914 E9.52987
G1 X96.838 Y185.42 E9.54668
G1 X96.801 Y184.744 E9.5692
G1 X96.8 Y115.631 E11.86791
G1 X96.809 Y114.966 E11.89003
G1 X96.856 Y114.462 E11.90686
G1 X96.982 Y113.973 E11.92366
G1 X97.183 Y113.509 E11.94048
G1 X97.454 Y113.082 E11.9573
G1 X97.789 Y112.704 E11.9741
G1 F1500 E5.4741
;MESH:CS7 - Arduino Uno Shield Enclosure_Lid.stl
G0 F3600 X101.213 Y114.335
G0 X101.213 Y116
;TYPE:WALL-INNER
G1 F1500 E11.9741
G1 F1800 X101 Y116.193 E11.98366
G1 X101 Y116 E11.98406
G1 X101.213 Y116 E11.98525
G1 F1500 E5.48525
G0 F3600 X102.189 Y117.361
G0 X102.206 Y182.657
G0 X101.212 Y184
G1 F1500 E11.98525
G1 F1800 X101 Y184 E11.9923
G1 X101 Y183.807 E11.99872
G1 X101.212 Y184 E12.00189
G1 F1500 E5.50189
G0 F3600 X102.427 Y182.855
G0 X196.208 Y182.656
G0 X194.909 Y183.724
G1 F1500 E12.00189
G1 F1800 X195.213 Y184 E12.01555
G1 X104.788 Y184 E15.02309
G1 X105.084 Y183.73 E15.03642
G1 X105.386 Y183.276 E15.05455
G1 X105.599 Y182.766 E15.07294
G1 X105.71 Y181.994 E15.09888
G1 X105.593 Y181.207 E15.12534
G1 X105.254 Y180.492 E15.15166
G1 X104.719 Y179.903 E15.17813
G1 X104.036 Y179.494 E15.2046
G1 X103.303 Y179.313 E15.22972
G1 X102.963 Y179.293 E15.24104
G1 X102.212 Y179.405 E15.2663
G1 X101.489 Y179.748 E15.29291
G1 X101 Y180.194 E15.31493
G1 X101 Y179.741 E15.32149
G1 X101 Y119.788 E17.31553
G1 X101.267 Y120.083 E17.32877
G1 X101.747 Y120.402 E17.34794
G1 X102.477 Y120.66 E17.37369
G1 X103.271 Y120.697 E17.40012
G1 X104.039 Y120.506 E17.42645
G1 X104.721 Y120.095 E17.45293
G1 X105.259 Y119.502 E17.47956
G1 X105.596 Y118.78 E17.50606
G1 X105.71 Y117.994 E17.53248
G1 X105.594 Y117.208 E17.5589
G1 X105.252 Y116.489 E17.58539
G1 X104.807 Y116 E17.60738
G1 X105.259 Y116 E17.61392
G1 X195.212 Y116 E20.60577
G1 X194.915 Y116.27 E20.61912
G1 X194.602 Y116.741 E20.63793
G1 X194.34 Y117.471 E20.66372
G1 X194.303 Y118.267 E20.69023
G1 X194.498 Y119.043 E20.71684
G1 X194.908 Y119.724 E20.74328
G1 X195.493 Y120.255 E20.76956
G1 X196.214 Y120.595 E20.79607
G1 X197.004 Y120.71 E20.82262
G1 X197.786 Y120.595 E20.84891
G1 X198.508 Y120.254 E20.87547
G1 X199 Y119.808 E20.89755
G1 X199 Y120.259 E20.90405
G1 X199 Y180.212 E22.89809
G1 X198.733 Y179.919 E22.91128
G1 X198.259 Y179.602 E22.93024
G1 X197.547 Y179.347 E22.9554
G1 X196.974 Y179.291 E22.97455
G1 X196.208 Y179.406 E23.00031
G1 X195.493 Y179.746 E23.02664
G1 X194.915 Y180.27 E23.05259
G1 X194.598 Y180.747 E23.07164
G1 X194.34 Y181.477 E23.09739
G1 X194.303 Y182.265 E23.12363
G1 X194.494 Y183.039 E23.15015
G1 X194.909 Y183.724 E23.17678
G1 F1500 E16.67678
G0 F3600 X196.208 Y182.656
G0 X197.78 Y182.666
G0 X199 Y184
G1 F1500 E23.17678
G1 F1800 X198.787 Y184 E23.18387
G1 X199 Y183.806 E23.18755
G1 X199 Y184 E23.18797
G1 F1500 E16.68797
G0 F3600 X197.797 Y182.651
G0 X197.869 Y117.443
G0 X199 Y116
G1 F1500 E23.18797
G1 F1800 X199 Y116.212 E23.19502
G1 X198.806 Y116 E23.1987
G1 X199 Y116 E23.19975
G1 F1500 E16.69975
G0 F3600 X197.664 Y117.218
G0 X196.699 Y118.984
G0 X196.331 Y120.208
G1 F1500 E23.19975
G1 F1800 X197.004 Y120.306 E23.22237
G1 X197.669 Y120.208 E23.24473
G1 X198.283 Y119.918 E23.26731
G1 X198.777 Y119.47 E23.28949
G1 X199.04 Y119.074 E23.3053
G1 X199.264 Y118.449 E23.32739
G1 X199.295 Y117.768 E23.35006
G1 X199.132 Y117.121 E23.37225
G1 X198.909 Y116.706 E23.38792
G1 X198.46 Y116.214 E23.41008
G1 X197.892 Y115.874 E23.43209
G1 X197.449 Y115.739 E23.4475
G1 X196.985 Y115.694 E23.463
G1 X196.33 Y115.792 E23.48503
G1 X195.715 Y116.083 E23.50766
G1 X195.221 Y116.533 E23.52988
G1 X194.962 Y116.922 E23.54543
G1 X194.737 Y117.55 E23.56761
G1 X194.705 Y118.227 E23.59016
G1 X194.871 Y118.888 E23.61282
G1 X195.22 Y119.467 E23.63531
G1 X195.718 Y119.919 E23.65768
G1 X196.331 Y120.208 E23.68022
G1 F1500 E17.18022
G0 F3600 X196.699 Y118.984
G0 X196.699 Y182.984
G0 X196.331 Y184.208
G1 F1500 E23.68022
G1 F1800 X197 Y184.306 E23.70271
G1 X197.669 Y184.208 E23.7252
G1 X198.286 Y183.916 E23.7479
G1 X198.786 Y183.46 E23.77041
G1 X199.126 Y182.892 E23.79243
G1 X199.264 Y182.44 E23.80814
G1 X199.295 Y181.773 E23.83035
G1 X199.134 Y181.126 E23.85253
G1 X198.909 Y180.706 E23.86838
G1 X198.47 Y180.224 E23.89006
G1 X198.078 Y179.962 E23.90574
G1 X197.459 Y179.74 E23.92761
G1 X196.985 Y179.694 E23.94345
G1 X196.326 Y179.793 E23.96562
G1 X195.718 Y180.082 E23.98801
G1 X195.221 Y180.533 E24.01033
G1 X194.959 Y180.927 E24.02607
G1 X194.737 Y181.555 E24.04822
G1 X194.705 Y182.226 E24.07056
G1 X194.868 Y182.884 E24.09311
G1 X195.221 Y183.467 E24.11578
G1 X195.718 Y183.919 E24.13812
G1 X196.331 Y184.208 E24.16066
G1 F1500 E17.66066
G0 F3600 X196.699 Y182.984
G0 X102.702 Y182.985
G0 X102.331 Y184.208
G1 F1500 E24.16066
G1 F1800 X103 Y184.306 E24.18315
G1 X103.674 Y184.207 E24.20581
G1 X104.285 Y183.916 E24.22832
G1 X104.778 Y183.467 E24.2505
G1 X105.032 Y183.086 E24.26573
G1 X105.21 Y182.659 E24.28111
G1 X105.306 Y181.995 E24.30343
G1 X105.206 Y181.325 E24.32596
G1 X104.918 Y180.717 E24.34834
G1 X104.463 Y180.216 E24.37085
G1 X103.882 Y179.868 E24.39337
G1 X103.243 Y179.71 E24.41526
G1 X102.981 Y179.695 E24.42399
G1 X102.33 Y179.792 E24.44588
G1 X101.714 Y180.084 E24.46856
G1 X101.221 Y180.534 E24.49076
G1 X100.96 Y180.926 E24.50642
G1 X100.737 Y181.551 E24.52849
G1 X100.705 Y182.227 E24.551
G1 X100.871 Y182.888 E24.57367
G1 X101.22 Y183.467 E24.59616
G1 X101.722 Y183.922 E24.61869
G1 X102.331 Y184.208 E24.64107
G0 F3600 X101.865 Y184.4
G1 F1800 X100.6 Y184.4 E24.68314
G1 X100.6 Y182.888 E24.73343
G1 X100.6 Y182.227 E24.74368
G1 X100.6 Y181.551 E24.75048
G1 X100.6 Y180.926 E24.76327
G1 X100.6 Y119.132 E26.81855
G1 X100.6 Y118.674 E26.83378
G1 X100.6 Y118.005 E26.85603
G1 X100.6 Y117.341 E26.87812
G1 X100.6 Y116.914 E26.89232
G1 X100.6 Y115.6 E26.93602
G1 X101.868 Y115.6 E26.9782
G1 X102.33 Y115.6 E26.99356
G1 X102.985 Y115.6 E27.01535
G1 X103.449 Y115.6 E27.03078
G1 X103.892 Y115.6 E27.04552
G1 X195.868 Y115.6 E30.10465
G1 X196.33 Y115.6 E30.11657
G1 X196.985 Y115.6 E30.12433
G1 X197.449 Y115.6 E30.12881
G1 X197.892 Y115.6 E30.13634
G1 X199.4 Y115.6 E30.18649
G1 X199.4 Y117.121 E30.23708
G1 X199.4 Y117.768 E30.24702
G1 X199.4 Y118.449 E30.25385
G1 X199.4 Y119.074 E30.26662
G1 X199.4 Y181.126 E32.33047
G1 X199.4 Y181.773 E32.34037
G1 X199.4 Y182.44 E32.34706
G1 X199.4 Y182.892 E32.35468
G1 X199.4 Y184.4 E32.40484
G1 X198.131 Y184.4 E32.44704
G1 X197.669 Y184.4 E32.45896
G1 X197 Y184.4 E32.46689
G1 X196.331 Y184.4 E32.47481
G1 X195.867 Y184.4 E32.48677
G1 X104.132 Y184.4 E35.53789
G1 X103.674 Y184.4 E35.54974
G1 X103 Y184.4 E35.55775
G1 X102.331 Y184.4 E35.56567
G1 X101.865 Y184.4 E35.57768
G1 F1500 E29.07768
G0 F3600 X102.427 Y182.855
G0 X102.802 Y119.009
G0 X102.555 Y120.263
G1 F1500 E35.57768
G1 F1800 X103.231 Y120.295 E35.60019
G1 X103.884 Y120.132 E35.62258
G1 X104.464 Y119.783 E35.64509
G1 X104.922 Y119.278 E35.66777
G1 X105.209 Y118.664 E35.69031
G1 X105.306 Y117.995 E35.71279
G1 X105.207 Y117.326 E35.73529
G1 X104.916 Y116.714 E35.75782
G1 X104.463 Y116.216 E35.78022
G1 X103.892 Y115.874 E35.80235
G1 X103.449 Y115.739 E35.81055
G1 X102.985 Y115.694 E35.8151
G1 X102.33 Y115.792 E35.82309
G1 X101.718 Y116.082 E35.84217
G1 X101.224 Y116.53 E35.86435
G1 X100.968 Y116.914 E35.8797
G1 X100.791 Y117.341 E35.8907
G1 X100.693 Y118.005 E35.89875
G1 X100.793 Y118.674 E35.90691
G1 X101.084 Y119.285 E35.92602
G1 X101.53 Y119.777 E35.94811
G1 X101.927 Y120.041 E35.96396
G1 X102.555 Y120.263 E35.98612
G0 F3600 X102.633 Y119.866
;TYPE:WALL-OUTER
G1 F1800 X103.191 Y119.893 E36.0047
G1 X103.729 Y119.758 E36.02315
G1 X104.207 Y119.471 E36.04169
G1 X104.585 Y119.054 E36.06041
G1 X104.822 Y118.548 E36.079
G1 X104.902 Y117.996 E36.09755
G1 X104.82 Y117.444 E36.11611
G1 X104.58 Y116.939 E36.13471
G1 X104.207 Y116.529 E36.15314
G1 X103.728 Y116.242 E36.17171
G1 X103.371 Y116.133 E36.18413
G1 X102.996 Y116.097 E36.19666
G1 X102.448 Y116.179 E36.21509
G1 X101.943 Y116.418 E36.23367
G1 X101.529 Y116.793 E36.25225
G1 X101.322 Y117.103 E36.26465
G1 X101.179 Y117.448 E36.27707
G1 X101.097 Y118.004 E36.29576
G1 X101.18 Y118.556 E36.31433
G1 X101.42 Y119.06 E36.33289
G1 X101.793 Y119.471 E36.35135
G1 X102.107 Y119.68 E36.3639
G1 X102.633 Y119.866 E36.38246
G0 F3600 X102.833 Y119.875
G1 F1500 E29.88246
G0 F3600 X102.873 Y119.011
G0 X102.702 Y182.985
G0 X102.448 Y183.821
G1 F1500 E36.38246
G1 F1800 X103 Y183.902 E36.40101
G1 X103.556 Y183.82 E36.4197
G1 X104.06 Y183.58 E36.43827
G1 X104.473 Y183.204 E36.45685
G1 X104.678 Y182.897 E36.46913
G1 X104.821 Y182.552 E36.48155
G1 X104.902 Y181.996 E36.50023
G1 X104.819 Y181.443 E36.51883
G1 X104.582 Y180.942 E36.53727
G1 X104.207 Y180.529 E36.55582
G1 X103.728 Y180.242 E36.57439
G1 X103.183 Y180.107 E36.59307
G1 X103 Y180.097 E36.59916
G1 X102.448 Y180.179 E36.61773
G1 X101.939 Y180.42 E36.63646
G1 X101.527 Y180.796 E36.65501
G1 X101.32 Y181.107 E36.66743
G1 X101.134 Y181.629 E36.68586
G1 X101.107 Y182.187 E36.70445
G1 X101.244 Y182.733 E36.72317
G1 X101.532 Y183.21 E36.7417
G1 X101.946 Y183.585 E36.76028
G1 X102.448 Y183.821 E36.77873
G0 F3600 X102.646 Y183.85
G1 F1500 E30.27873
G0 F3600 X103 Y183.029
G0 X196.699 Y182.984
G0 X196.448 Y183.821
G1 F1500 E36.77873
G1 F1800 X197 Y183.902 E36.79729
G1 X197.552 Y183.821 E36.81584
G1 X198.061 Y183.58 E36.83457
G1 X198.473 Y183.204 E36.85313
G1 X198.758 Y182.728 E36.87158
G1 X198.867 Y182.371 E36.88399
G1 X198.893 Y181.813 E36.90257
G1 X198.758 Y181.271 E36.92115
G1 X198.58 Y180.939 E36.93368
G1 X198.207 Y180.529 E36.95211
G1 X197.897 Y180.322 E36.96451
G1 X197.371 Y180.133 E36.9831
G1 X196.996 Y180.097 E36.99563
G1 X196.444 Y180.18 E37.0142
G1 X195.943 Y180.418 E37.03265
G1 X195.527 Y180.796 E37.05134
G1 X195.32 Y181.107 E37.06377
G1 X195.134 Y181.633 E37.08232
G1 X195.107 Y182.187 E37.10077
G1 X195.242 Y182.729 E37.11935
G1 X195.533 Y183.21 E37.13805
G1 X195.943 Y183.583 E37.15648
G1 X196.448 Y183.821 E37.17505
G0 F3600 X196.646 Y183.85
G1 F1500 E30.67505
G0 F3600 X196.999 Y183.028
G0 X199.8 Y185.665
G0 X199.8 Y184.8
G1 F1500 E37.17505
G1 F1800 X100.2 Y184.8 E40.48776
G1 X100.2 Y115.2 E42.80267
G1 X199.8 Y115.2 E46.11538
G1 X199.8 Y184.8 E48.43028
G0 F3600 X199.6 Y184.8
G1 F1500 E41.93028
G0 F3600 X200.665 Y184.8
G0 X196.699 Y118.984
G0 X196.448 Y119.821
G1 F1500 E48.43028
G1 F1800 X197.004 Y119.902 E48.44897
G1 X197.552 Y119.821 E48.46739
G1 X198.058 Y119.582 E48.48601
G1 X198.471 Y119.207 E48.50456
G1 X198.68 Y118.893 E48.51711
G1 X198.867 Y118.371 E48.53555
G1 X198.893 Y117.809 E48.55426
G1 X198.756 Y117.267 E48.57285
G1 X198.58 Y116.939 E48.58523
G1 X198.204 Y116.527 E48.60379
G1 X197.728 Y116.242 E48.62224
G1 X197.371 Y116.133 E48.63465
G1 X196.996 Y116.097 E48.64718
G1 X196.448 Y116.179 E48.66561
G1 X195.94 Y116.419 E48.6843
G1 X195.527 Y116.796 E48.7029
G1 X195.322 Y117.103 E48.71518
G1 X195.134 Y117.629 E48.73376
G1 X195.107 Y118.187 E48.75234
G1 X195.244 Y118.733 E48.77106
G1 X195.532 Y119.21 E48.78959
G1 X195.943 Y119.583 E48.80805
G1 X196.448 Y119.821 E48.82662
G0 F3600 X196.646 Y119.849
G0 X196.101 Y120.973
;TYPE:SKIN
G1 F1800 X197.004 Y121.104 E48.85697
G1 X197.901 Y120.973 E48.88712
G1 X198.61 Y120.637 E48.91322
G1 X198.61 Y179.367 E50.86658
G1 X198.436 Y179.251 E50.87354
G1 X197.633 Y178.963 E50.90191
G1 X196.964 Y178.899 E50.92426
G1 X196.093 Y179.029 E50.95356
G1 X195.274 Y179.418 E50.98371
G1 X194.617 Y180.014 E51.01322
G1 X194.247 Y180.571 E51.03546
G1 X193.954 Y181.401 E51.06473
G1 X193.911 Y182.304 E51.0948
G1 X194.129 Y183.191 E51.12518
G1 X194.384 Y183.61 E51.14149
G1 X105.632 Y183.61 E54.0934
G1 X105.731 Y183.461 E54.09935
G1 X105.978 Y182.871 E54.12062
G1 X106.104 Y181.994 E54.15009
G1 X105.97 Y181.092 E54.18042
G1 X105.582 Y180.272 E54.21059
G1 X104.969 Y179.598 E54.24089
G1 X104.186 Y179.129 E54.27125
G1 X103.362 Y178.925 E54.29948
G1 X102.945 Y178.901 E54.31338
G1 X102.097 Y179.028 E54.3419
G1 X101.39 Y179.364 E54.36793
G1 X101.39 Y120.632 E56.32137
G1 X101.572 Y120.753 E56.32863
G1 X102.401 Y121.046 E56.35788
G1 X103.31 Y121.089 E56.38815
G1 X104.19 Y120.87 E56.41831
G1 X104.971 Y120.399 E56.44864
G1 X105.587 Y119.72 E56.47913
G1 X105.974 Y118.893 E56.5095
G1 X106.104 Y117.994 E56.53972
G1 X105.971 Y117.093 E56.57001
G1 X105.637 Y116.39 E56.59589
G1 X194.367 Y116.39 E59.54707
G1 X194.251 Y116.565 E59.55405
G1 X193.954 Y117.395 E59.58337
G1 X193.911 Y118.306 E59.6137
G1 X194.134 Y119.195 E59.64419
G1 X194.604 Y119.974 E59.67445
G1 X195.274 Y120.583 E59.70456
G1 X196.101 Y120.973 E59.73497
G0 F3600 X198.04 Y121.106
G1 F1800 X198.429 Y121.495 E59.75327
G0 F3600 X198.429 Y122.061
G1 F1800 X197.571 Y121.203 E59.79363
G0 F3600 X197.077 Y121.275
G1 F1800 X198.429 Y122.627 E59.85722
G0 F3600 X198.429 Y123.192
G1 F1800 X196.44 Y121.204 E59.95075
G1 X196.37 Y121.134
G0 F3600 X195.612 Y120.942
G1 F1800 X198.429 Y123.758 E60.08323
G0 F3600 X198.429 Y124.324
G1 F1800 X190.674 Y116.57 E60.44798
G0 F3600 X190.109 Y116.57
G1 F1800 X198.429 Y124.889 E60.83931
G0 F3600 X198.429 Y125.455
G1 F1800 X189.543 Y116.57 E61.25725
G0 F3600 X188.977 Y116.57
G1 F1800 X198.429 Y126.021 E61.70182
G0 F3600 X198.429 Y126.586
G1 F1800 X188.412 Y116.57 E62.17297
G0 F3600 X187.846 Y116.57
G1 F1800 X198.429 Y127.152 E62.67074
G0 F3600 X198.429 Y127.718
G1 F1800 X187.28 Y116.57 E63.19513
G0 F3600 X186.715 Y116.57
G1 F1800 X198.429 Y128.284 E63.74612
G0 F3600 X198.429 Y128.849
G1 F1800 X186.149 Y116.57 E64.32371
G0 F3600 X185.583 Y116.57
G1 F1800 X198.429 Y129.415 E64.92792
G0 F3600 X198.429 Y129.981
G1 F1800 X185.018 Y116.57 E65.55873
G0 F3600 X184.452 Y116.57
G1 F1800 X198.429 Y130.546 E66.21614
G0 F3600 X198.429 Y131.112
G1 F1800 X183.886 Y116.57 E66.90018
G0 F3600 X183.32 Y116.57
G1 F1800 X198.429 Y131.678 E67.61084
G0 F3600 X198.429 Y132.243
G1 F1800 X182.755 Y116.57 E68.34807
G0 F3600 X182.189 Y116.57
G1 F1800 X198.429 Y132.809 E69.11193
G0 F3600 X198.429 Y133.375
G1 F1800 X181.623 Y116.57 E69.90241
G0 F3600 X181.058 Y116.57
G1 F1800 X198.429 Y133.94 E70.71946
G0 F3600 X198.429 Y134.506
G1 F1800 X180.492 Y116.57 E71.56314
G0 F3600 X179.926 Y116.57
G1 F1800 X198.429 Y135.072 E72.43344
G0 F3600 X198.429 Y135.637
G1 F1800 X179.361 Y116.57 E73.33032
G0 F3600 X178.795 Y116.57
G1 F1800 X198.429 Y136.203 E74.25382
G0 F3600 X198.429 Y136.769
G1 F1800 X178.229 Y116.57 E75.20394
G0 F3600 X177.664 Y116.57
G1 F1800 X198.429 Y137.334 E76.18064
G0 F3600 X198.429 Y137.9
G1 F1800 X177.098 Y116.57 E77.18396
G0 F3600 X176.532 Y116.57
G1 F1800 X198.429 Y138.466 E78.2139
G0 F3600 X198.429 Y139.032
G1 F1800 X175.967 Y116.57 E79.27045
G0 F3600 X175.401 Y116.57
G1 F1800 X198.429 Y139.597 E80.35359
