;FLAVOR:Marlin
;TIME:6044
;Filament used: 6.79318m
;Layer height: 0.2
;MINX:90.4
;MINY:111.4
;MINZ:0.2
;MAXX:209.6
;MAXY:188.6
;MAXZ:4
;Generated with Cura_SteamEngine 4.13.1
M140 S60
M105
M190 S60
M104 S205
M105
M109 S205
M82 ;absolute extrusion mode
G28 ;Home
G1 Z15.0 F6000 ;Move the platform down 15mm
;Prime the extruder
G92 E0
G1 F200 E3
G92 E0
G92 E0
G92 E0
G1 F1500 E-6
;LAYER_COUNT:20
;LAYER:0
M107
M204 S5000
G0 F3600 X91.794 Y112.171 Z0.2
M204 S3000
;TYPE:SKIRT
G1 F1500 E0
G1 F1800 X92.241 Y111.873 E0.01787
G1 X92.726 Y111.645 E0.03569
G1 X93.24 Y111.492 E0.05353
G1 X93.908 Y111.41 E0.07591
G1 X94.33 Y111.4 E0.08995
G1 X205.345 Y111.4 E3.78233
G1 X206.043 Y111.41 E3.80555
G1 X206.577 Y111.458 E3.82338
G1 X207.098 Y111.584 E3.84121
G1 X207.595 Y111.787 E3.85906
G1 X208.056 Y112.061 E3.8769
G1 X208.471 Y112.4 E3.89472
G1 X208.831 Y112.798 E3.91257
G1 X209.128 Y113.244 E3.93039
G1 X209.356 Y113.73 E3.94825
G1 X209.508 Y114.244 E3.96608
G1 X209.59 Y114.909 E3.98836
G1 X209.6 Y115.33 E4.00237
G1 X209.6 Y184.309 E6.29662
G1 X209.591 Y185.036 E6.3208
G1 X209.544 Y185.57 E6.33863
G1 X209.419 Y186.091 E6.35645
G1 X209.217 Y186.588 E6.37429
G1 X208.944 Y187.05 E6.39214
G1 X208.606 Y187.466 E6.40997
G1 X208.209 Y187.827 E6.42782
G1 X207.763 Y188.125 E6.44566
G1 X207.278 Y188.353 E6.46348
G1 X206.764 Y188.507 E6.48133
G1 X206.092 Y188.59 E6.50385
G1 X205.67 Y188.6 E6.51789
G1 X94.661 Y188.6 E10.21006
G1 X93.963 Y188.591 E10.23328
G1 X93.428 Y188.544 E10.25114
G1 X92.907 Y188.418 E10.26897
G1 X92.41 Y188.216 E10.28682
G1 X91.949 Y187.943 E10.30464
G1 X91.533 Y187.604 E10.32248
G1 X91.172 Y187.208 E10.34031
G1 X90.874 Y186.762 E10.35815
G1 X90.646 Y186.276 E10.376
G1 X90.493 Y185.762 E10.39384
G1 X90.41 Y185.088 E10.41643
G1 X90.4 Y184.658 E10.43073
G1 X90.4 Y115.625 E12.72678
G1 X90.409 Y114.96 E12.7489
G1 X90.457 Y114.426 E12.76673
G1 X90.583 Y113.905 E12.78456
G1 X90.785 Y113.408 E12.8024
G1 X91.058 Y112.947 E12.82022
G1 X91.397 Y112.531 E12.83807
G1 X91.794 Y112.171 E12.8559
M204 S5000
G0 F3600 X92.18 Y112.383
M204 S3000
G1 F1800 X92.617 Y112.128 E12.87272
G1 X93.088 Y111.944 E12.88954
G1 X93.582 Y111.838 E12.90635
G1 X94.24 Y111.801 E12.92827
G1 X205.339 Y111.8 E16.62343
G1 X206.037 Y111.81 E16.64665
G1 X206.54 Y111.857 E16.66345
G1 X207.03 Y111.983 E16.68028
G1 X207.494 Y112.185 E16.69711
G1 X207.92 Y112.457 E16.71392
G1 X208.298 Y112.792 E16.73072
G1 X208.618 Y113.183 E16.74753
G1 X208.873 Y113.62 E16.76436
G1 X209.056 Y114.091 E16.78116
G1 X209.163 Y114.585 E16.79798
G1 X209.199 Y115.24 E16.81979
G1 X209.2 Y184.304 E19.11687
G1 X209.191 Y185.031 E19.14105
G1 X209.145 Y185.534 E19.15785
G1 X209.02 Y186.024 E19.17467
G1 X208.819 Y186.488 E19.19149
G1 X208.548 Y186.915 E19.20831
G1 X208.213 Y187.294 E19.22514
G1 X207.823 Y187.615 E19.24194
G1 X207.387 Y187.871 E19.25875
G1 X206.916 Y188.054 E19.27556
G1 X206.422 Y188.162 E19.29238
G1 X205.76 Y188.199 E19.31443
G1 X94.666 Y188.2 E23.00943
G1 X93.968 Y188.191 E23.03265
G1 X93.464 Y188.144 E23.04948
G1 X92.974 Y188.019 E23.0663
G1 X92.51 Y187.818 E23.08312
G1 X92.084 Y187.547 E23.09992
G1 X91.705 Y187.212 E23.11674
G1 X91.384 Y186.821 E23.13357
G1 X91.129 Y186.385 E23.15036
G1 X90.945 Y185.914 E23.16718
G1 X90.838 Y185.42 E23.18399
G1 X90.801 Y184.744 E23.20651
G1 X90.8 Y115.631 E25.50522
G1 X90.809 Y114.966 E25.52734
G1 X90.856 Y114.462 E25.54418
G1 X90.982 Y113.973 E25.56097
G1 X91.183 Y113.509 E25.57779
G1 X91.454 Y113.082 E25.59461
G1 X91.789 Y112.704 E25.61141
G1 X92.18 Y112.383 E25.62824
M204 S5000
G1 F1500 E19.62824
;MESH:CS7 - Arduino Uno Shield Enclosure_Lid.stl
G0 F3600 X96.699 Y118.984
G0 X96.331 Y120.208
M204 S3000
;TYPE:WALL-INNER
G1 F1500 E25.62824
G1 F1800 X97.004 Y120.306 E25.65086
G1 X97.67 Y120.208 E25.67325
G1 X98.285 Y119.916 E25.69589
G1 X98.786 Y119.46 E25.71842
G1 X99.132 Y118.882 E25.74083
G1 X99.295 Y118.227 E25.76328
G1 X99.263 Y117.56 E25.78549
G1 X99.124 Y117.103 E25.80137
G1 X98.783 Y116.536 E25.82338
G1 X98.278 Y116.078 E25.84606
G1 X97.665 Y115.791 E25.86857
G1 X97 Y115.693 E25.89092
G1 X96.331 Y115.792 E25.91342
G1 X95.718 Y116.082 E25.93597
G1 X95.224 Y116.53 E25.95815
G1 X94.962 Y116.922 E25.97384
G1 X94.736 Y117.55 E25.99603
G1 X94.705 Y118.227 E26.01858
G1 X94.868 Y118.884 E26.04109
G1 X95.216 Y119.463 E26.06356
G1 X95.718 Y119.919 E26.08611
G1 X96.331 Y120.208 E26.10866
M204 S5000
G1 F1500 E20.10866
G0 F3600 X96.699 Y118.984
G0 X96.705 Y182.985
G0 X96.337 Y184.209
M204 S3000
G1 F1500 E26.10866
G1 F1800 X97.005 Y184.307 E26.13111
G1 X97.675 Y184.206 E26.15365
G1 X98.286 Y183.916 E26.17614
G1 X98.779 Y183.467 E26.19832
G1 X99.038 Y183.078 E26.21386
G1 X99.263 Y182.445 E26.23621
G1 X99.295 Y181.769 E26.25872
G1 X99.129 Y181.112 E26.28126
G1 X98.783 Y180.536 E26.3036
G1 X98.282 Y180.081 E26.32611
G1 X97.669 Y179.792 E26.34865
G1 X96.995 Y179.694 E26.37131
G1 X96.325 Y179.794 E26.39384
G1 X95.718 Y180.081 E26.41617
G1 X95.216 Y180.537 E26.43873
G1 X94.868 Y181.116 E26.4612
G1 X94.707 Y181.764 E26.4834
G1 X94.707 Y182.241 E26.49927
G1 X94.871 Y182.888 E26.52147
G1 X95.217 Y183.464 E26.54382
G1 X95.719 Y183.92 E26.56637
G1 X96.337 Y184.209 E26.58906
M204 S5000
G0 F3600 X95.867 Y184.4
M204 S3000
G1 F1800 X94.6 Y184.4 E26.63121
G1 X94.6 Y182.888 E26.68149
G1 X94.6 Y182.241 E26.69157
G1 X94.6 Y181.764 E26.69582
G1 X94.6 Y181.116 E26.70584
G1 X94.6 Y118.884 E28.77569
G1 X94.6 Y118.227 E28.78579
G1 X94.6 Y117.55 E28.79257
G1 X94.6 Y116.922 E28.80545
G1 X94.6 Y115.6 E28.84942
G1 X95.868 Y115.6 E28.89159
G1 X96.331 Y115.6 E28.90354
G1 X97 Y115.6 E28.91143
G1 X97.665 Y115.6 E28.91925
G1 X98.134 Y115.6 E28.93132
G1 X201.868 Y115.6 E32.38152
G1 X202.331 Y115.6 E32.39692
G1 X202.99 Y115.6 E32.41884
G1 X203.449 Y115.6 E32.43411
G1 X203.892 Y115.6 E32.44884
G1 X205.4 Y115.6 E32.499
G1 X205.4 Y116.868 E32.54117
G1 X205.4 Y117.326 E32.55641
G1 X205.4 Y117.995 E32.57866
G1 X205.4 Y118.669 E32.60107
G1 X205.4 Y119.135 E32.61657
G1 X205.4 Y181.116 E34.67807
G1 X205.4 Y181.76 E34.69949
G1 X205.4 Y182.236 E34.71532
G1 X205.4 Y182.884 E34.73687
G1 X205.4 Y184.4 E34.7873
G1 X204.133 Y184.4 E34.82944
G1 X203.67 Y184.4 E34.84484
G1 X203.005 Y184.4 E34.86695
G1 X202.335 Y184.4 E34.88924
G1 X201.867 Y184.4 E34.9048
G1 X98.132 Y184.4 E38.35504
G1 X97.675 Y184.4 E38.36688
G1 X97.005 Y184.4 E38.37484
G1 X96.337 Y184.4 E38.3827
G1 X95.867 Y184.4 E38.39479
M204 S5000
G1 F1500 E32.39479
G0 F3600 X95.867 Y185.665
G0 X202.705 Y182.986
G0 X202.335 Y184.209
M204 S3000
G1 F1500 E38.39479
G1 F1800 X203.005 Y184.307 E38.4029
G1 X203.67 Y184.208 E38.41099
G1 X204.283 Y183.918 E38.43009
G1 X204.784 Y183.463 E38.4526
G1 X205.132 Y182.884 E38.47507
G1 X205.293 Y182.236 E38.48573
G1 X205.293 Y181.76 E38.48997
G1 X205.132 Y181.116 E38.50056
G1 X204.784 Y180.537 E38.52303
G1 X204.281 Y180.08 E38.54564
G1 X203.664 Y179.791 E38.5683
G1 X203 Y179.694 E38.59062
G1 X202.327 Y179.793 E38.61324
G1 X201.722 Y180.078 E38.63549
G1 X201.214 Y180.54 E38.65832
G1 X200.868 Y181.118 E38.68073
G1 X200.705 Y181.773 E38.70318
G1 X200.737 Y182.439 E38.72536
G1 X200.874 Y182.893 E38.74113
G1 X201.22 Y183.467 E38.76342
G1 X201.719 Y183.92 E38.78584
G1 X202.335 Y184.209 E38.80495
M204 S5000
G1 F1500 E32.80495
G0 F3600 X202.705 Y182.986
G0 X202.784 Y119.009
G0 X202.566 Y120.264
M204 S3000
G1 F1500 E38.80495
G1 F1800 X203.23 Y120.295 E38.82705
G1 X203.884 Y120.131 E38.84948
G1 X204.467 Y119.78 E38.87211
G1 X204.922 Y119.278 E38.89465
G1 X205.208 Y118.669 E38.91354
G1 X205.307 Y117.995 E38.92173
G1 X205.207 Y117.326 E38.92989
G1 X204.916 Y116.715 E38.949
G1 X204.463 Y116.216 E38.97142
G1 X203.892 Y115.874 E38.99355
G1 X203.449 Y115.739 E39.00175
G1 X202.99 Y115.694 E39.00625
G1 X202.331 Y115.792 E39.01429
G1 X201.718 Y116.082 E39.03339
G1 X201.221 Y116.533 E39.05571
G1 X200.96 Y116.926 E39.0714
G1 X200.736 Y117.551 E39.09349
G1 X200.705 Y118.231 E39.11613
G1 X200.871 Y118.888 E39.13866
G1 X201.217 Y119.464 E39.16101
G1 X201.706 Y119.908 E39.18298
G1 X202.118 Y120.129 E39.19853
G1 X202.566 Y120.264 E39.21409
M204 S5000
G0 F3600 X202.634 Y119.867
M204 S3000
;TYPE:WALL-OUTER
G1 F1800 X203.19 Y119.893 E39.23261
G1 X203.729 Y119.758 E39.25109
G1 X204.21 Y119.468 E39.26977
G1 X204.585 Y119.054 E39.28835
G1 X204.821 Y118.552 E39.3068
G1 X204.903 Y117.996 E39.32549
G1 X204.82 Y117.444 E39.34406
G1 X204.58 Y116.94 E39.36262
G1 X204.207 Y116.529 E39.38108
G1 X203.728 Y116.242 E39.39965
G1 X203.371 Y116.133 E39.41207
G1 X203 Y116.097 E39.42447
G1 X202.448 Y116.179 E39.44303
G1 X201.943 Y116.418 E39.46161
G1 X201.527 Y116.796 E39.48031
G1 X201.32 Y117.107 E39.49273
G1 X201.133 Y117.629 E39.51117
G1 X201.107 Y118.19 E39.52985
G1 X201.244 Y118.733 E39.54848
G1 X201.529 Y119.207 E39.56687
G1 X201.939 Y119.579 E39.58529
G1 X202.272 Y119.758 E39.59786
G1 X202.634 Y119.867 E39.61044
M204 S5000
G0 F3600 X202.834 Y119.876
G1 F1500 E33.61044
G0 F3600 X202.874 Y119.012
G0 X202.705 Y182.986
G0 X202.452 Y183.822
M204 S3000
G1 F1500 E39.61044
G1 F1800 X203.004 Y183.903 E39.62899
G1 X203.552 Y183.821 E39.64742
G1 X204.058 Y183.582 E39.66603
G1 X204.471 Y183.207 E39.68459
G1 X204.758 Y182.729 E39.70313
G1 X204.893 Y182.187 E39.72171
G1 X204.893 Y181.809 E39.73428
G1 X204.758 Y181.271 E39.75273
G1 X204.471 Y180.793 E39.77127
G1 X204.057 Y180.417 E39.78988
G1 X203.548 Y180.178 E39.80858
G1 X203 Y180.098 E39.827
G1 X202.444 Y180.18 E39.84569
G1 X201.947 Y180.414 E39.86396
G1 X201.527 Y180.796 E39.88284
G1 X201.242 Y181.272 E39.9013
G1 X201.107 Y181.813 E39.91984
G1 X201.134 Y182.371 E39.93842
G1 X201.242 Y182.729 E39.95086
G1 X201.532 Y183.21 E39.96954
G1 X201.943 Y183.583 E39.988
G1 X202.452 Y183.822 E40.0067
M204 S5000
G0 F3600 X202.65 Y183.851
G1 F1500 E34.0067
G0 F3600 X203.002 Y183.029
G0 X205.8 Y185.665
G0 X205.8 Y184.8
M204 S3000
G1 F1500 E40.0067
G1 F1800 X94.2 Y184.8 E43.71854
G1 X94.2 Y115.2 E46.03344
G1 X205.8 Y115.2 E49.74527
G1 X205.8 Y184.8 E52.06018
M204 S5000
G0 F3600 X205.6 Y184.8
G1 F1500 E46.06018
G0 F3600 X205.6 Y185.665
G0 X97.001 Y183.029
G0 X96.453 Y183.822
M204 S3000
G1 F1500 E52.06018
G1 F1800 X97.004 Y183.903 E52.0787
G1 X97.557 Y183.819 E52.09731
G1 X98.061 Y183.58 E52.11586
G1 X98.473 Y183.204 E52.13441
G1 X98.678 Y182.897 E52.14669
G1 X98.866 Y182.367 E52.16539
G1 X98.893 Y181.809 E52.18397
G1 X98.756 Y181.267 E52.20257
G1 X98.471 Y180.793 E52.22096
G1 X98.057 Y180.417 E52.23956
G1 X97.552 Y180.179 E52.25813
G1 X96.996 Y180.098 E52.27682
G1 X96.443 Y180.181 E52.29542
G1 X95.943 Y180.417 E52.31381
G1 X95.529 Y180.793 E52.33241
G1 X95.242 Y181.271 E52.35095
G1 X95.107 Y181.813 E52.36953
G1 X95.107 Y182.191 E52.3821
G1 X95.244 Y182.733 E52.4007
G1 X95.529 Y183.207 E52.41909
G1 X95.943 Y183.583 E52.43769
G1 X96.453 Y183.822 E52.45643
M204 S5000
G0 F3600 X96.651 Y183.851
G1 F1500 E46.45643
G0 F3600 X96.705 Y182.985
G0 X96.699 Y118.984
G0 X96.448 Y119.821
M204 S3000
G1 F1500 E52.45643
G1 F1800 X97.004 Y119.902 E52.47511
G1 X97.552 Y119.821 E52.49354
G1 X98.06 Y119.58 E52.51224
G1 X98.473 Y119.204 E52.53082
G1 X98.758 Y118.728 E52.54927
G1 X98.893 Y118.187 E52.56781
G1 X98.866 Y117.629 E52.5864
G1 X98.756 Y117.267 E52.59898
G1 X98.471 Y116.793 E52.61737
G1 X98.054 Y116.415 E52.63609
G1 X97.548 Y116.178 E52.65468
G1 X97 Y116.097 E52.6731
G1 X96.448 Y116.179 E52.69166
G1 X95.943 Y116.418 E52.71025
G1 X95.529 Y116.793 E52.72883
G1 X95.322 Y117.103 E52.74122
G1 X95.133 Y117.629 E52.75981
G1 X95.107 Y118.187 E52.77839
G1 X95.242 Y118.729 E52.79697
G1 X95.529 Y119.207 E52.81551
G1 X95.943 Y119.583 E52.83412
G1 X96.448 Y119.821 E52.85268
M204 S5000
G0 F3600 X96.646 Y119.849
G0 X96.218 Y120.586
M204 S3000
;TYPE:SKIN
G1 F1800 X97.004 Y120.7 E52.8791
G1 X97.785 Y120.586 E52.90535
G1 X98.505 Y120.243 E52.93188
G1 X99.091 Y119.71 E52.95822
G1 X99.497 Y119.032 E52.98451
G1 X99.687 Y118.266 E53.01076
G1 X99.651 Y117.493 E53.03649
G1 X99.483 Y116.943 E53.05562
G1 X99.087 Y116.286 E53.08114
G1 X98.761 Y115.99 E53.09578
G1 X201.239 Y115.99 E56.50421
G1 X200.923 Y116.277 E56.51841
G1 X200.609 Y116.75 E56.5373
G1 X200.35 Y117.475 E56.5629
G1 X200.313 Y118.27 E56.58937
G1 X200.507 Y119.04 E56.61578
G1 X200.913 Y119.714 E56.64195
G1 X201.48 Y120.229 E56.66743
G1 X201.968 Y120.491 E56.68585
G1 X202.5 Y120.652 E56.70434
G1 X203.269 Y120.687 E56.72994
G1 X204.036 Y120.495 E56.75624
G1 X204.717 Y120.084 E56.7827
G1 X205.01 Y119.761 E56.7972
G1 X205.01 Y180.216 E58.80794
G1 X204.5 Y179.752 E58.83087
G1 X203.777 Y179.413 E58.85743
G1 X203 Y179.3 E58.88355
G1 X202.213 Y179.415 E58.91
G1 X201.503 Y179.75 E58.93611
G1 X200.909 Y180.29 E58.96281
G1 X200.503 Y180.968 E58.9891
G1 X200.313 Y181.734 E59.01535
G1 X200.349 Y182.506 E59.04105
G1 X200.515 Y183.053 E59.06006
G1 X200.916 Y183.717 E59.08586
G1 X201.238 Y184.01 E59.10034
G1 X98.762 Y184.01 E62.50871
G1 X99.077 Y183.723 E62.52288
G1 X99.389 Y183.254 E62.54162
G1 X99.649 Y182.521 E62.56749
G1 X99.687 Y181.73 E62.59382
G1 X99.493 Y180.96 E62.62024
G1 X99.087 Y180.286 E62.64641
G1 X98.501 Y179.753 E62.67275
G1 X97.782 Y179.414 E62.69919
G1 X96.995 Y179.3 E62.72564
G1 X96.21 Y179.417 E62.75204
G1 X95.499 Y179.753 E62.77819
G1 X94.99 Y180.216 E62.80108
G1 X94.99 Y119.784 E64.81106
G1 X95.499 Y120.247 E64.83394
G1 X96.218 Y120.586 E64.86038
M204 S5000
G1 F1500 E58.86038
G0 F3600 X96.699 Y118.984
G0 X93.335 Y179.64
G0 X95.353 Y179.64
M204 S3000
G1 F1500 E64.86038
G1 F1800 X95.169 Y179.456 E64.86903
M204 S5000
G0 F3600 X95.724 Y179.446
M204 S3000
G1 F1800 X95.169 Y178.89 E64.89516
M204 S5000
G0 F3600 X95.169 Y178.325
M204 S3000
G1 F1800 X96.109 Y179.265 E64.93938
M204 S5000
G0 F3600 X96.587 Y179.178
M204 S3000
G1 F1800 X95.169 Y177.759 E65.0061
M204 S5000
G0 F3600 X95.169 Y177.193
M204 S3000
G1 F1800 X97.109 Y179.133 E65.09735
M204 S5000
G0 F3600 X97.77 Y179.229
M204 S3000
G1 F1800 X95.169 Y176.628 E65.2197
M204 S5000
G0 F3600 X95.169 Y176.062
M204 S3000
G1 F1800 X102.936 Y183.829 E65.58503
M204 S5000
G0 F3600 X102.37 Y183.829
M204 S3000
G1 F1800 X99.739 Y181.198 E65.70879
M204 S5000
G0 F3600 X99.859 Y181.883
M204 S3000
G1 F1800 X101.804 Y183.829 E65.8003
M204 S5000
G0 F3600 X101.239 Y183.829
M204 S3000
G1 F1800 X99.832 Y182.422 E65.86648
M204 S5000
G0 F3600 X99.714 Y182.87
M204 S3000
G1 F1800 X100.673 Y183.829 E65.91158
M204 S5000
G0 F3600 X100.107 Y183.829
M204 S3000
G1 F1800 X99.566 Y183.288 E65.93703
M204 S5000
G0 F3600 X99.349 Y183.637
M204 S3000
G1 F1800 X99.542 Y183.829 E65.94609
M204 S5000
G1 F1500 E59.94609
G0 F3600 X99.542 Y185.665
G0 X103.502 Y185.665
G0 X103.502 Y183.829
M204 S3000
G1 F1500 E65.94609
G1 F1800 X95.169 Y175.496 E66.33805
M204 S5000
G0 F3600 X95.169 Y174.931
M204 S3000
G1 F1800 X104.067 Y183.829 E66.75658
M204 S5000
G0 F3600 X104.633 Y183.829
M204 S3000
G1 F1800 X95.169 Y174.365 E67.20174
M204 S5000
G0 F3600 X95.169 Y173.799
M204 S3000
G1 F1800 X105.199 Y183.829 E67.67352
M204 S5000
G0 F3600 X105.764 Y183.829
M204 S3000
G1 F1800 X95.169 Y173.234 E68.17187
M204 S5000
G0 F3600 X95.169 Y172.668
M204 S3000
G1 F1800 X106.33 Y183.829 E68.69685
M204 S5000
G0 F3600 X106.896 Y183.829
M204 S3000
G1 F1800 X95.169 Y172.102 E69.24846
M204 S5000
G0 F3600 X95.169 Y171.537
M204 S3000
G1 F1800 X107.461 Y183.829 E69.82663
M204 S5000
G0 F3600 X108.027 Y183.829
M204 S3000
G1 F1800 X95.169 Y170.971 E70.43143
M204 S5000
G0 F3600 X95.169 Y170.405
M204 S3000
G1 F1800 X108.593 Y183.829 E71.06286
M204 S5000
G0 F3600 X109.158 Y183.829
M204 S3000
G1 F1800 X95.169 Y169.839 E71.72088
M204 S5000
G0 F3600 X95.169 Y169.274
M204 S3000
G1 F1800 X109.724 Y183.829 E72.4055
M204 S5000
G0 F3600 X110.29 Y183.829
M204 S3000
G1 F1800 X95.169 Y168.708 E73.11675
M204 S5000
G0 F3600 X95.169 Y168.142
M204 S3000
G1 F1800 X110.855 Y183.829 E73.85459
M204 S5000
G0 F3600 X111.421 Y183.829
M204 S3000
G1 F1800 X95.169 Y167.577 E74.61904
M204 S5000
G0 F3600 X95.169 Y167.011
M204 S3000
G1 F1800 X111.987 Y183.829 E75.41011
M204 S5000
G0 F3600 X112.553 Y183.829
M204 S3000
G1 F1800 X95.169 Y166.445 E76.2278
M204 S5000
G0 F3600 X95.169 Y165.88
M204 S3000
G1 F1800 X113.118 Y183.829 E77.07206
M204 S5000
G0 F3600 X113.684 Y183.829
M204 S3000
G1 F1800 X95.169 Y165.314 E77.94295
M204 S5000
